**kern	**kern	**kern	**kern	**harm
*staff4	*staff3	*staff2	*staff1	*staff1
=1-	=1-	=1-	=1-	=1-
*clefF4	*clefF4	*clefG2	*clefG2	*
*k[b-e-]	*k[b-e-]	*k[b-e-]	*k[b-e-]	*
*M4/4	*M4/4	*M4/4	*M4/4	*
*	*	*	*MM120	*
*B-:	*B-:	*B-:	*B-:	*B-:
[1BB-	[1F	[1d	2r	I
.	.	.	4r	.
.	.	.	4en/	.
=2	=2	=2	=2	=2
1BB-_	1F_	1d_	4.f/	.
.	.	.	8a/	.
.	.	.	8b-\L	.
.	.	.	8a\	.
.	.	.	8b-\	.
.	.	.	8dd\J	.
=3	=3	=3	=3	=3
1BB-_	1F_	1d_	4.ff\	.
.	.	.	8a/	.
.	.	.	8b-\L	.
.	.	.	8dd\	.
.	.	.	8ff\	.
.	.	.	8aa\J	.
=4	=4	=4	=4	=4
1BB-]	1F]	1d]	4.bb-\	.
.	.	.	8aa\	.
.	.	.	8gg\L	.
.	.	.	8ff\	.
.	.	.	8ee-\	.
.	.	.	8dd\J	.
=5	=5	=5	=5	=5
!!linebreak:original
4E-\	4c\	4g/	4cc\	ii6
4r	4r	4r	4r	.
*	*clefG2	*	*	*
4D\	4G/ 4f/	4bn\	4dd\	V43/ii
4r	4r	4r	4r	.
=6	=6	=6	=6	=6
4C/	4G/ 4e-/	4cc\	4ee-\	ii
4r	4r	4r	4r	.
2r	2r	2r	2r	.
=7	=7	=7	=7	=7
*	*clefF4	*	*	*
[1FF	[1A	[1e-	2r	V7
.	.	.	4r	.
.	.	.	4Bn/	.
=8	=8	=8	=8	=8
1FF_	1A_	1e-_	4.c/	.
.	.	.	8d/	.
.	.	.	8e-/L	.
.	.	.	8f/	.
.	.	.	8a/	.
.	.	.	8cc/J	.
=9	=9	=9	=9	=9
1FF_	1A_	1e-_	4.ee-\	.
.	.	.	8bn\	.
.	.	.	8cc\L	.
.	.	.	8dd\	.
.	.	.	8ee-\	.
.	.	.	8ff#\J	.
=10	=10	=10	=10	=10
1FF]	1A]	1e-]	4.gg\	.
.	.	.	8ff\	.
.	.	.	8ee-\L	.
.	.	.	8dd\	.
.	.	.	8ee-\	.
.	.	.	8cc\J	.
=11	=11	=11	=11	=11
!!linebreak:original
4GG/	4B-\	4d/	4b-\	vi
4r	4r	4r	4r	.
*	*clefG2	*	*	*
4FF/	4e-/	4a/	4cc\	V7
4r	4r	4r	4r	.
=12	=12	=12	=12	=12
4BB-/	4d/	4b-\	4dd\	I
4r	4r	4r	4r	.
2r	2r	2r	2r	.
=13	=13	=13	=13	=13
*clefG2	*	*	*	*
2.d/	4r	[1b-	2.ff\	I6
.	8r	.	.	.
.	8en/	.	.	.
.	8f/L	.	.	.
.	8b-/	.	.	.
4c#/	8g/	.	4een\	cto7
.	8b-/J	.	.	.
=14	=14	=14	=14	=14
2.d/	4.f/	1b-_	2.ff\	I6
.	8en/	.	.	.
.	8f/L	.	.	.
.	8b-/	.	.	.
4c#/	8g/	.	4een\	cto7
.	8b-/J	.	.	.
=15	=15	=15	=15	=15
2.d/	4.f/	1b-_	2.ff\	I6
.	8en/	.	.	.
.	8f/L	.	.	.
.	8b-/	.	.	.
*clefF4	*	*	*	*
4D\	8a-/	.	4ff#\	I6+
.	8b-/J	.	.	.
=16	=16	=16	=16	=16
!!pagebreak:original
1E-	2g/	2b-\]	4.gg\	IV
.	.	.	8ff#\	.
*	*clefF4	*	*	*
.	[2B-\	2c#/	8gg\L	cto7
.	.	.	8ff#\	.
.	.	.	8gg\	.
.	.	.	8bb-\J	.
=17	=17	=17	=17	=17
1F	2B-\]	2d/	4.ff\	C64
.	.	.	8dd\	.
.	4.A\	8c/L	8ee-\L	V7
.	.	8Bn/	8dd\	.
.	.	8c/	8ee-\	.
.	8c\	8e-/J	8a\J	.
=18	=18	=18	=18	=18
1G	1B-	[1d	4.b-\	vi
.	.	.	8a/	.
.	.	.	8b-\L	.
.	.	.	8a\	.
.	.	.	8b-\	.
.	.	.	8dd\J	.
=19	=19	=19	=19	=19
1F	1A-	1d]	4.b-\	V43/IV
.	.	.	8a/	.
.	.	.	8b-\L	.
.	.	.	8a\	.
.	.	.	8b-\	.
.	.	.	8dd\J	.
=20	=20	=20	=20	=20
!!linebreak:original
2E-\	1G	1d-	4.b-\	V7/bVII
.	.	.	8a/	.
2En\	.	.	8b-\L	viio7/V
.	.	.	8a\	.
.	.	.	8b-\	.
.	.	.	8gg\J	.
=21	=21	=21	=21	=21
1F	2B-\	2d/	4.ff\	C64
.	.	.	8dd\	.
.	4.A\	8c/L	8ee-\L	V7
.	.	8Bn/	8dd\	.
.	.	8c/	8ee-\	.
.	8c\	8e-/J	8a\J	.
=22	=22	=22	=22	=22
4BB-/	4B-'\	4d'/	16b-\LL	I
.	.	.	16a\	.
.	.	.	16b-\	.
.	.	.	16dd\JJ	.
4r	8B-/L	8d/L	16f/LL	.
.	.	.	16g/	.
*	*clefG2	*	*	*
.	8c/J	8e-/J	16e-/	V7
.	.	.	16f/JJ	.
4BB-/	4d'/	4f'/	16d/LL	I
.	.	.	16b-/	.
.	.	.	16a/	.
.	.	.	16b-/JJ	.
4r	8B-/L	8d/L	16f/LL	.
.	.	.	16g/	.
.	8c/J	8e-/J	16e-/	V7
.	.	.	16f/JJ	.
=23	=23	=23	=23	=23
!!linebreak:original
4BB-'/	4d'/	4f'/	16d/LL	I
.	.	.	16b-/	.
.	.	.	16a/	.
.	.	.	16b-/JJ	.
4BB-'/	4d'/	4f'/	16f/LL	.
.	.	.	16dd/	.
.	.	.	16cc#/	.
.	.	.	16dd/JJ	.
4BB-'/	4d'/	4f'/	16b-\LL	.
.	.	.	16ff\	.
.	.	.	16gg\	.
.	.	.	16ff\JJ	.
4BB-'/	4d'/	4f'/	16ee-\LL	.
.	.	.	16dd\	.
.	.	.	16ccn\	.
.	.	.	16b-\JJ	.
=24	=24	=24	=24	=24
4BB-/	4c'/	4e-'/	16a\LL	viio
.	.	.	16ee-\	.
.	.	.	16dd\	.
.	.	.	16ee-\JJ	.
*	*clefF4	*	*	*
4r	8A\L	8c/L	16cc\LL	.
.	.	.	16dd\	.
.	8B-\J	8d/J	16b-\	.
.	.	.	16cc\JJ	.
4BB-/	4c'\	4e-'/	16a/LL	.
.	.	.	16e-/	.
.	.	.	16d/	.
.	.	.	16e-/JJ	.
4r	8A\L	8c/L	16c/LL	.
.	.	.	16e-/	.
.	8B-\J	8d/J	16B-/	.
.	.	.	16e-/JJ	.
=25	=25	=25	=25	=25
!!pagebreak:original
*	*clefG2	*	*	*
4BB-'/	4c'/	4e-'/	16A/LL	V7
.	.	.	16g/	.
.	.	.	16f/	.
.	.	.	16g/JJ	.
4BB-'/	4c'/	4e-'/ 4a'/	16e-/LL	.
.	.	.	16cc/	.
.	.	.	16b-/	.
.	.	.	16cc/JJ	.
4BB-'/	4c'/	4e-'/ 4a'/	16a\LL	.
.	.	.	16ee-\	.
.	.	.	16dd\	.
.	.	.	16ee-\JJ	.
4BB-'/	4c'/	4e-'/ 4a'/	16a\LL	.
.	.	.	16gg\	.
.	.	.	16ff\	.
.	.	.	16ee-\JJ	.
=26	=26	=26	=26	=26
4BB-/	4B-'/	16b-\LL	4dd'\	I
.	.	16a\	.	.
.	.	16b-\	.	.
.	.	16dd\JJ	.	.
4r	8B-/L	16f/LL	8dd\L	.
.	.	16g/	.	.
.	8c/J	16e-/	8ee-\J	.
.	.	16f/JJ	.	.
4BB-/	4d'/	16d/LL	4ff'\	.
.	.	16b-/	.	.
.	.	16a/	.	.
.	.	16b-/JJ	.	.
4r	8B-/L	16f/LL	8dd\L	.
.	.	16g/	.	.
.	8c/J	16e-/	8ee-\J	.
.	.	16f/JJ	.	.
=27	=27	=27	=27	=27
!!linebreak:original
8BB-\L	1d	16d/LL	2ff\	I
.	.	16dd/	.	.
8B-\	.	16cc/	.	.
.	.	16dd/JJ	.	.
8B-\	.	16ee-\LL	.	.
.	.	16dd\	.	.
8B-\J	.	16cc\	.	.
.	.	16dd\JJ	.	.
8AA\L	.	16d/LL	2ff#\	V43/vi
.	.	16cc/	.	.
8A\	.	16bn/	.	.
.	.	16cc/JJ	.	.
8A\	.	16dd\LL	.	.
.	.	16cc\	.	.
8A\J	.	16b\	.	.
.	.	16cc\JJ	.	.
=28	=28	=28	=28	=28
*g:	*g:	*g:	*g:	*g:
8GG/L	2d/	16b-\LL	4gg\	i
.	.	16a\	.	.
8G/	.	16b-\	.	.
.	.	16dd\JJ	.	.
8G/	.	16b-\LL	8.gg\L	.
.	.	16a\	.	.
8G/J	.	16b-\	.	.
.	.	16gg\JJ	16gg\Jk	.
8DD/L	[4f#/	16ff#\LL	4aa\	V
.	.	16gg\	.	.
8D/	.	16aa\	.	.
.	.	16ff#\JJ	.	.
8D/	16f#/LL]	16dd\LL	8.aa\L	.
.	16g/	16ee-\	.	.
8D/J	16f#/	16dd\	.	.
.	16a/JJ	16cc\JJ	16aa\Jk	.
=29	=29	=29	=29	=29
!!linebreak:original
4G'\	16b-\LL	16b-\LL	4bb-'\	i
.	16dd\	16bb-\	.	.
.	16cc\	16aa\	.	.
.	16b-\JJ	16gg\JJ	.	.
4D'\	16a\LL	16ff#\LL	4ddd'\	V7
.	16cc\	16aa\	.	.
.	16b-\	16gg\	.	.
.	16a\JJ	16ff#\JJ	.	.
4G'\	16b-\LL	16gg\LL	4bb-'\	i
.	16dd\	16bb-\	.	.
.	16cc\	16aa\	.	.
.	16b-\JJ	16gg\JJ	.	.
4D'\	16a\LL	16ff#\LL	4ddd'\	V7
.	16cc\	16aa\	.	.
.	16b-\	16gg\	.	.
.	16a\JJ	16ff#\JJ	.	.
=30	=30	=30	=30	=30
8GG/L	16b-\LL	16gg\LL	8dd\L 8bb-\	i
.	16dd\	16bb-\	.	.
8G/	16cc\	16aa\	8dd\ 8bb-\	.
.	16b-\JJ	16gg\JJ	.	.
8DD/	16a\LL	16ff#\LL	8dd\ 8ddd\	V7
.	16cc\	16aa\	.	.
8D/J	16b-\	16gg\	8dd\J 8ddd\	.
.	16a\JJ	16ff#\JJ	.	.
8GG/L	16b-\LL	16gg\LL	8dd\L 8bb-\	i
.	16dd\	16bb-\	.	.
8G/	16cc\	16aa\	8dd\ 8bb-\	.
.	16b-\JJ	16gg\JJ	.	.
8DD/	16a\LL	16ff#\LL	8dd\ 8ddd\	V7
.	16cc\	16aa\	.	.
8D/J	16b-\	16gg\	8dd\J 8ddd\	.
.	16a\JJ	16ff#\JJ	.	.
=31	=31	=31	=31	=31
!!pagebreak:original
8GG\L	4g/	16gg\LL	16bb-\LL	i
.	.	16bb-\	16ddd\	.
8G\	.	16aa\	16ccc\	.
.	.	16gg\JJ	16bb-\JJ	.
8AA\	4cc\	16ff#\LL	16aa\LL	viio6
.	.	16aa\	16ccc\	.
8A\J	.	16gg\	16bb-\	.
.	.	16ff#\JJ	16aa\JJ	.
8BB-\L	4dd\	8gg\	16gg\LL	i6
.	.	.	16bb-\	.
8B-\	.	4dd\	16aa\	.
.	.	.	16gg\JJ	.
8BBn\	4g/	.	16ff\LL	V6/V/V
.	.	.	16aa\	.
8Bn\J	.	8dd\	16gg\	.
.	.	.	16ff\JJ	.
=32	=32	=32	=32	=32
*F:	*F:	*F:	*F:	*F:
8C/L	8g/L	16cc\LL	4een\	V
.	.	16een\	.	.
*clefG2	*	*	*	*
8c/	16en/L	16gg\	.	.
.	16f/JJ	16ff\JJ	.	.
8c/	16g/LL	16ee\LL	4ccc\	.
.	16e/	16gg\	.	.
8c/J	16f/	16ff\	.	.
.	16g/JJ	16ee\JJ	.	.
8c/L	2a-/	16dd\LL	4bbn\	viio42/V
.	.	16ee\	.	.
8c/	.	16ff\	.	.
.	.	16dd\JJ	.	.
8c/	.	16bn\LL	4fff\	.
.	.	16cc\	.	.
8c/J	.	16dd\	.	.
.	.	16b\JJ	.	.
=33	=33	=33	=33	=33
!!linebreak:original
*clefF4	*	*	*	*
8C\L	8g/L	16cc\LL	4eeen\	V
.	.	16een\	.	.
8c\	16en/L	16gg\	.	.
.	16f/JJ	16ff\JJ	.	.
8c\	16g/LL	16ee\LL	4ccc\	.
.	16e/	16gg\	.	.
8c\J	16f/	16ff\	.	.
.	16g/JJ	16ee\JJ	.	.
8c\L	2a-/	16dd\LL	4bbn\	viio42/V
.	.	16ee\	.	.
8c\	.	16ff\	.	.
.	.	16dd\JJ	.	.
8c\	.	16bn\LL	4fff\	.
.	.	16cc\	.	.
8c\J	.	16dd\	.	.
.	.	16b\JJ	.	.
=34	=34	=34	=34	=34
8C/L	8g/L	16cc\LL	4eeen\	V
.	.	16een\	.	.
*clefG2	*	*	*	*
8c/	16en/L	16gg\	.	.
.	16f/JJ	16ff\JJ	.	.
8c/	16g/LL	16ee\LL	4ccc\	.
.	16e/	16gg\	.	.
8c/J	16f/	16ff\	.	.
.	16g/JJ	16ee\JJ	.	.
8c/L	2a-/	16ff\LL	4aa-\	viio43/V
.	.	16ee\	.	.
8c/	.	16ff\	.	.
.	.	16ee\JJ	.	.
8c/	.	8ff\L	4bn\	.
8c/J	.	8f\J	.	.
=35	=35	=35	=35	=35
!!linebreak:original
4c/	4g/	8en/L	8cc\L	V
.	.	16c/L	16cc\L	.
*	*	*clefF4	*	*
.	.	16Bn/JJ	16bn\JJ	.
4r	4r	16c\LL	16cc\LL	.
.	.	16B\	16b\	.
.	.	16c\	16cc\	.
.	.	16B\JJ	16b\JJ	.
*	*	*clefG2	*	*
8r	8r	8c/L	8cc/L	.
*clefF4	*	*	*	*
16C/LL	16c/LL	16c/L	16c/L	.
*	*	*	*clefF4	*
16BBn/JJ	16Bn/JJ	16B/JJ	16Bn/JJ	.
16C/LL	16c/LL	16c/LL	16c\LL	.
16BB/	16B/	16B/	16B\	.
16C/	16c/	16c/	16c\	.
16BB/JJ	16B/JJ	16B/JJ	16B\JJ	.
=36	=36	=36	=36	=36
*	*	*	*clefG2	*
4C/	4c/	4c/	4c/	.
4r	8r	4r	8r	.
.	8cc\	.	8ccc\	.
2r	8bn/L	2r	8bbn\L	.
.	8cc/	.	8ccc\	.
.	8b-/	.	8bb-\	V7
.	8g/J	.	8gg\J	.
=37	=37	=37	=37	=37
2r	[1f	[1cc	[1aa	I
4r	.	.	.	.
4en\	.	.	.	.
=38	=38	=38	=38	=38
!!pagebreak:original
4.f\	1f_	1cc_	1aa_	I
8Bn\	.	.	.	.
8c\L	.	.	.	.
8G#\	.	.	.	.
8A\	.	.	.	.
8En\J	.	.	.	.
=39	=39	=39	=39	=39
4.F\	1f]	1cc_	1aa]	I
8C/	.	.	.	.
8BB-/L	.	.	.	.
8AA/	.	.	.	.
8GG/	.	.	.	.
8FF/J	.	.	.	.
=40	=40	=40	=40	=40
4EEn/	[1en	1cc_	[1bb-	V65
4r	.	.	.	.
4r	.	.	.	.
*clefG2	*	*	*	*
4f#/	.	.	.	.
=41	=41	=41	=41	=41
4.g/	1e_	1cc_	1bb-_	.
8f#/	.	.	.	.
8g/L	.	.	.	.
8f#/	.	.	.	.
8g/	.	.	.	.
8f#/J	.	.	.	.
=42	=42	=42	=42	=42
!!linebreak:original
4.g\	1e_	1cc_	1bb-_	.
8d#\	.	.	.	.
8en\L	.	.	.	.
8Bn\	.	.	.	.
8c\	.	.	.	.
8F#\J	.	.	.	.
=43	=43	=43	=43	=43
8G/L	1e]	1cc]	1bb-]	V7
8En/	.	.	.	.
8C/	.	.	.	.
8GG/J	.	.	.	.
8FF/L	.	.	.	.
8EEn/	.	.	.	.
8DD/	.	.	.	.
8CC/J	.	.	.	.
=44	=44	=44	=44	=44
*f:	*f:	*f:	*f:	*f:
8FF/	8f/	4.cc\	4.aa-\	i
4F\	4A-/	.	.	.
8G\	8B-/	8b-\	8gg\	.
8A-\L	8c/L	8a-/L	8ff\L	.
8B-\	8d-/	8g/	8een\	.
8A-\	8c/	8a-/	8ff\	.
8G\J	8B-/J	8b-/J	8gg\J	.
=45	=45	=45	=45	=45
4.F\	4.A-/	4.cc\	4.aa-\	.
8G\	8B-/	8b-\	8gg\	.
8A-\L	8c/L	8a-/L	8ff\L	.
8B-\	8d-/	8g/	8een\	.
8A-\	8c/	8a-/	8ff\	.
8G\J	8B-/J	8b-/J	8gg\J	.
=46	=46	=46	=46	=46
!!linebreak:original
8F\	8A-\	8cc\	8aa-\	.
4F\	4A-\	4cc\	4aa-\	.
8C/	8E-\	8A-/	8gg-\	V65/VI
8D-\L	8F\L	8a-/L	8ff\L	VI
8E-\	8G-\	8g-/	8ee-\	.
8F\	8A-\	8f/	8dd-\	.
8E-\J	8G-\J	8g-/J	8ee-\J	.
=47	=47	=47	=47	=47
8D-\	8F\	8a-/	8ff\	.
4D-\	4F\	4a-/	4ff\	.
8AA/	8C/	8cc\	8ee-\	viio/iv
8BB-/L	8D-\L	8f/L	8dd-\L	iv
8C/	8E-\	8e-/	8cc\	.
8D-/	8F\	8d-/	8b-\	.
8C/J	8E-\J	8e-/J	8cc\J	.
=48	=48	=48	=48	=48
8BB-/	8D-\	[2f/	8dd-\	.
4BB-/	4D-\	.	4dd-\	.
8C/	8E-\	.	8cc\	i
8D-/L	8F\L	8f/L]	8b-/L	VI
8C/	8E-\	8g-/	8a/	viio/VI
8D-/	8F\	8f/	8b-/	VI
8C/J	8E-\J	8g-/J	8a/J	viio/VI
=49	=49	=49	=49	=49
!!pagebreak:original
2D-\	1F	4.f/	2b-\	VI
.	.	8g/	.	.
2DD-/	.	8a-/L	2bn\	Gr
.	.	8g/	.	.
.	.	8a-/	.	.
.	.	8f/J	.	.
=50	=50	=50	=50	=50
16CC/LL	4G\	4en'/	4cc'\	V
16C/	.	.	.	.
16BBn/	.	.	.	.
16C/JJ	.	.	.	.
16EEn/LL	4r	8cc\L	8een\L	.
16C/	.	.	.	.
16DD/	.	8dd\J	8ff\J	.
16C/JJ	.	.	.	.
16CC/LL	4C\ 4c\	4een'\	4gg'\	V
16C/	.	.	.	.
16BB/	.	.	.	.
16C/JJ	.	.	.	.
16EE/LL	4r	8cc\L	8ee\L	.
16C/	.	.	.	.
16DD/	.	8dd\J	8ff\J	.
16C/JJ	.	.	.	.
=51	=51	=51	=51	=51
!!linebreak:original
16CC/LL	4C\ 4c\	4een'\	4gg'\	.
16C/	.	.	.	.
16BBn/	.	.	.	.
16C/JJ	.	.	.	.
16EEn/LL	4r	8ee\L	8gg\L	.
16C/	.	.	.	.
16DD/	.	8ff\J	8aa\J	.
16C/JJ	.	.	.	.
16CC/LL	2en\	16gg\LL	16bb-\LL	V7
16C/	.	16ff\	16aa\	.
16CC/	.	16ee\	16gg\	.
16C/JJ	.	16dd\JJ	16ff\JJ	.
16CC/LL	.	16cc/LL	16een\LL	.
16C/	.	16b-/	16dd\	.
16CC/	.	16a/	16cc\	.
16C/JJ	.	16g/JJ	16b-\JJ	.
=52	=52	=52	=52	=52
*	*clefG2	*	*	*
*F:	*F:	*F:	*F:	*F:
4FF/	16f/LL	4f'/	4a'/	I
.	16f/	.	.	.
.	16en/	.	.	.
.	16f/JJ	.	.	.
4r	16c/LL	8ff\L	8aa\L	.
.	16f/	.	.	.
.	16B-/	8gg\J	8bb-\J	.
.	16f/JJ	.	.	.
4FF/	16A/LL	4aa'\	4ccc'\	.
.	16f/	.	.	.
.	16e/	.	.	.
.	16f/JJ	.	.	.
4r	16c/LL	8ff\L	8aa\L	.
.	16f/	.	.	.
.	16B-/	8gg\J	8bb-\J	.
.	16f/JJ	.	.	.
=53	=53	=53	=53	=53
!!linebreak:original
4FF/	16A/LL	4aa'\	4ccc'\	.
.	16f/	.	.	.
.	16en/	.	.	.
.	16f/JJ	.	.	.
4r	16c/LL	8ff\L	8aa\L	.
.	16f/	.	.	.
.	16B-/	8gg\J	8bb-\J	.
.	16f/JJ	.	.	.
4FF/	8A/L	8aa\L	8ccc\L	.
.	8a/	8cc\	8fff\	.
4r	8a/	8cc\	8fff\	.
.	8a/J	8cc\J	8fff\J	.
=54	=54	=54	=54	=54
1r	16g/LL	16b-\LL	16eeen\LL	V65
.	16a/	16cc\	16fff\	.
.	16g/	16b-\	16eee\	.
.	16a/JJ	16cc\JJ	16fff\JJ	.
.	16f/LL	16a/LL	16ddd\LL	.
.	16g/	16b-/	16eee\	.
.	16f/	16a/	16ddd\	.
.	16g/JJ	16b-/JJ	16eee\JJ	.
.	16en/LL	16g/LL	16ccc\LL	.
.	16f/	16a/	16ddd\	.
.	16e/	16g/	16ccc\	.
.	16f/JJ	16a/JJ	16ddd\JJ	.
.	16d/LL	16f/LL	16bb-\LL	.
.	16e/	16g/	16ccc\	.
.	16d/	16f/	16bb-\	.
.	16e/JJ	16g/JJ	16ccc\JJ	.
=55	=55	=55	=55	=55
!!pagebreak:original
2r	16c/LL	16en/LL	16aa\LL	V7
.	16d/	16f/	16bb-\	.
.	16c/	16e/	16aa\	.
.	16d/JJ	16f/JJ	16bb-\JJ	.
*	*clefF4	*	*	*
.	16B-\LL	16d/LL	16gg\LL	V42
.	16c\	16e/	16aa\	.
.	16B-\	16d/	16gg\	.
.	16c\JJ	16e/JJ	16aa\JJ	.
8AA/L	8A/L	8c/L	4ff\	I6
*	*clefG2	*	*	*
8AA/	8c/	8f/	.	.
8AA/	8c/	8f/	4eee-\	.
8AA/J	8c/J	8f/J	.	.
=56	=56	=56	=56	=56
8BB-/L	4d/	2f/	2ddd\	IV
8BB-/	.	.	.	.
8BB-/	2B-/	.	.	.
8BB-/J	.	.	.	.
8BB-/L	.	4g/	4eeen\	V42
8BB-/	.	.	.	.
8BBn/	4Bn/	4a-/	4fff\	viio7/V
8BB/J	.	.	.	.
=57	=57	=57	=57	=57
!!linebreak:original
4C/	[1c	8a/L	16fff\LL	C64
.	.	.	16ccc\	.
.	.	8g#/	16eeen\	.
.	.	.	16ccc\JJ	.
4r	.	8a/	16fff\LL	.
.	.	.	16ccc\	.
.	.	8g#/J	16eee\	.
.	.	.	16ccc\JJ	.
2r	.	8a/L	16fff\LL	.
.	.	.	16ccc\	.
.	.	8g#/	16eee\	.
.	.	.	16ccc\JJ	.
.	.	8a/	16fff\LL	.
.	.	.	16ccc\	.
.	.	8g#/J	16eee\	.
.	.	.	16ccc\JJ	.
=58	=58	=58	=58	=58
16CC/LL	1c_	4a/	4fff'\	.
16FF/	.	.	.	.
16EEn/	.	.	.	.
16FF/JJ	.	.	.	.
16CC/LL	.	2a/	4ccc'\	.
16AA/	.	.	.	.
16GG/	.	.	.	.
16AA/JJ	.	.	.	.
16CC/LL	.	.	4aa'\	.
16C/	.	.	.	.
16BBn/	.	.	.	.
16C/JJ	.	.	.	.
16CC/LL	.	4ff\	4ff'\	.
16F/	.	.	.	.
16En/	.	.	.	.
16F/JJ	.	.	.	.
=59	=59	=59	=59	=59
!!linebreak:original
4CC/	2c/]	1een	1gg	V7
4r	.	.	.	.
2C/	2B-/	.	.	.
=60	=60	=60	=60	=60
4F\	4A/	8ff\L	8ff\L	I
.	.	8aa\	8ccc\	.
4r	4r	8aa\	8ccc\	.
.	.	8aa\J	8ccc\J	.
8r	8r	4aa'\	4ccc'\	.
*clefG2	*	*	*	*
8a/	8cc\	.	.	.
8r	8r	4ff'\	4aa'\	.
8f/	8a/	.	.	.
=61	=61	=61	=61	=61
8r	8r	4bb-'\	4ddd'\	IV
8b-\	8dd\	.	.	.
8r	8r	4gg'\	4bb-'\	ii6
8g/	8b-\	.	.	.
8r	8r	4een'\	4gg'\	V
8en/	8g/	.	.	.
8r	8r	4gg'\	4ccc'\	.
8c/	8en/	.	.	.
=62	=62	=62	=62	=62
4f/	8f/L	8ff\L	4aa\	I
.	8a/	8cc\	.	.
4r	8a/	8cc\	4r	.
.	8a/J	8cc\J	.	.
2r	4a'/	4cc'\	8r	.
.	.	.	8fff\	.
.	4f'/	4a'/	8r	.
.	.	.	8eeen\	.
=63	=63	=63	=63	=63
!!pagebreak:original
1r	4b-'\	4dd'\	8r	IV
.	.	.	8ddd\	.
.	4g'/	4b-'\	8r	ii6
.	.	.	8ddd-\	.
.	4en'/	4g'/	8r	V7
.	.	.	8ccc\	.
.	4c'/	4en'/	8r	.
.	.	.	8bb-\	.
=64	=64	=64	=64	=64
2r	4f/	4f/	8aa\L	I
.	.	.	8ccc\	.
.	4r	4r	8ccc\	.
.	.	.	8ccc\J	.
8r	8r	8r	8ccc\L	V7
8c/L	8g/L	8b-\L	8een\	.
8c/	8g/	8b-\	8ee\	.
8c/J	8g/J	8b-\J	8ee\J	.
=65	=65	=65	=65	=65
*clefF4	*	*	*	*
4F\	4a/	4a/	8ff\L	I
.	.	.	8ccc\	.
4r	4r	4r	8ccc\	.
.	.	.	8ccc\J	.
8r	8r	8r	8ccc\L	V7
8c\L	8g/L	8b-\L	8een\	.
8c\	8g/	8b-\	8ee\	.
8c\J	8g/J	8b-\J	8ee\J	.
=66	=66	=66	=66	=66
!!linebreak:original
16F\LL	16f/LL	16f/LL 16a/	16ff\LL	I
16F\	16c/	16f/ 16a/	16een\	.
16F\	16c/	16f/ 16a/	16ff\	.
16F\JJ	16c/JJ	16f/JJ 16a/	16aa\JJ	.
16F\LL	16c/LL	16f/LL 16a/	16cc\LL	.
16F\	16c/	16f/ 16a/	16aa\	.
16F\	16c/	16f/ 16a/	16gg\	.
16F\JJ	16c/JJ	16f/JJ 16a/	16ff\JJ	.
16F\LL	16c/LL	16en/LL 16b-/	16ee\LL	V7
16F\	16c/	16e/ 16b-/	16ff#\	.
16F\	16c/	16e/ 16b-/	16gg\	.
16F\JJ	16c/JJ	16e/JJ 16b-/	16ff#\JJ	.
16F\LL	16c/LL	16e/LL 16b-/	16gg\LL	.
16F\	16c/	16e/ 16b-/	16bb-\	.
16F\	16c/	16e/ 16b-/	16aa\	.
16F\JJ	16c/JJ	16e/JJ 16b-/	16gg\JJ	.
=67	=67	=67	=67	=67
!!linebreak:original
16FF/LL	16c/LL	16f/LL 16a/	16ff\LL	I
16FF/	16c/	16f/ 16a/	16een\	.
16FF/	16c/	16f/ 16a/	16ff\	.
16FF/JJ	16c/JJ	16f/JJ 16a/	16aa\JJ	.
16FF/LL	16c/LL	16f/LL 16a/	16cc\LL	.
16FF/	16c/	16f/ 16a/	16aa\	.
16FF/	16c/	16f/ 16a/	16gg\	.
16FF/JJ	16c/JJ	16f/JJ 16a/	16ff\JJ	.
16FF/LL	16c/LL	16en/LL 16b-/	16ee\LL	V7
16FF/	16c/	16e/ 16b-/	16ff#\	.
16FF/	16c/	16e/ 16b-/	16gg\	.
16FF/JJ	16c/JJ	16e/JJ 16b-/	16ff#\JJ	.
16FF/LL	16c/LL	16e/LL 16b-/	16gg\LL	.
16FF/	16c/	16e/ 16b-/	16bb-\	.
16FF/	16c/	16e/ 16b-/	16aa\	.
16FF/JJ	16c/JJ	16e/JJ 16b-/	16gg\JJ	.
=68	=68	=68	=68	=68
4FF/	4c/	4f/ 4a/	4ff\	I
4FF/	4c/	4f/ 4a/	4cc\ 4aa\	.
4FF/	4c/	4f/ 4a/	4a\ 4ff\	.
4r	4r	4r	4r	.
*-	*-	*-	*-	*-
